svg/color/kol.svg

<?xml version="1.0" encoding="UTF-8" ?>
<!DOCTYPE svg PUBLIC "-//W3C//DTD SVG 1.1//EN" "http://www.w3.org/Graphics/SVG/1.1/DTD/svg11.dtd">
<svg width="250pt" height="250pt" viewBox="0 0 250 250" version="1.1" xmlns="http://www.w3.org/2000/svg">
<g id="#ffffffff">
<path fill="#ffffff" opacity="1.00" d=" M 0.00 0.00 L 142.41 0.00 C 118.56 23.55 95.05 47.47 71.10 70.92 C 70.89 71.09 70.47 71.44 70.25 71.62 C 69.98 86.75 70.54 101.92 69.81 117.04 C 69.67 137.15 69.55 157.25 69.48 177.35 L 69.60 178.13 C 90.87 199.29 112.10 220.50 133.35 241.69 C 136.04 244.43 138.94 246.99 141.34 250.00 L 68.94 250.00 C 46.81 227.81 24.58 205.72 2.45 183.54 C 1.70 182.80 0.88 182.14 0.00 181.57 L 0.00 0.00 Z" />
<path fill="#ffffff" opacity="1.00" d=" M 151.83 0.00 L 250.00 0.00 L 250.00 250.00 L 216.61 250.00 C 227.51 249.63 238.42 249.85 249.33 249.64 L 248.59 248.27 C 207.47 207.17 166.19 166.21 125.20 124.98 C 152.55 97.76 179.83 70.47 207.17 43.24 C 221.26 29.04 235.65 15.13 249.55 0.75 C 216.98 0.42 184.40 0.40 151.83 0.00 Z" />
</g>
<g id="#e24275ff">
<path fill="#e24275" opacity="1.00" d=" M 142.41 0.00 L 151.83 0.00 C 184.40 0.40 216.98 0.42 249.55 0.75 C 235.65 15.13 221.26 29.04 207.17 43.24 C 179.83 70.47 152.55 97.76 125.20 124.98 L 125.17 125.02 C 107.25 106.89 88.94 89.13 71.10 70.92 C 95.05 47.47 118.56 23.55 142.41 0.00 Z" />
</g>
<g id="#9c83d6ff">
<path fill="#9c83d6" opacity="1.00" d=" M 70.25 71.62 C 70.47 71.44 70.89 71.09 71.10 70.92 C 88.94 89.13 107.25 106.89 125.17 125.02 C 121.89 128.81 117.75 131.69 114.28 135.28 C 109.25 140.26 104.24 145.26 99.14 150.18 C 90.88 157.23 83.45 165.17 75.66 172.71 C 73.80 174.51 71.66 175.97 69.48 177.35 C 69.55 157.25 69.67 137.15 69.81 117.04 C 70.54 101.92 69.98 86.75 70.25 71.62 Z" />
</g>
<g id="#ad96e3ff">
<path fill="#ad96e3" opacity="1.00" d=" M 125.17 125.02 L 125.20 124.98 C 166.19 166.21 207.47 207.17 248.59 248.27 L 249.33 249.64 C 238.42 249.85 227.51 249.63 216.61 250.00 L 141.34 250.00 C 138.94 246.99 136.04 244.43 133.35 241.69 C 112.10 220.50 90.87 199.29 69.60 178.13 L 69.48 177.35 C 71.66 175.97 73.80 174.51 75.66 172.71 C 83.45 165.17 90.88 157.23 99.14 150.18 C 104.24 145.26 109.25 140.26 114.28 135.28 C 117.75 131.69 121.89 128.81 125.17 125.02 Z" />
</g>
<g id="#739cffff">
<path fill="#739cff" opacity="1.00" d=" M 0.00 181.57 C 0.88 182.14 1.70 182.80 2.45 183.54 C 24.58 205.72 46.81 227.81 68.94 250.00 L 0.00 250.00 L 0.00 181.57 Z" />
</g>
</svg>

<?xml version="1.0" encoding="utf-8"?>
<!-- Generator: Adobe Illustrator 26.0.3, SVG Export Plug-In . SVG Version: 6.00 Build 0)  -->
<svg version="1.1" id="Layer_1" xmlns="http://www.w3.org/2000/svg" xmlns:xlink="http://www.w3.org/1999/xlink" x="0px" y="0px"
	 viewBox="0 0 250 250" style="enable-background:new 0 0 250 250;" xml:space="preserve">
<style type="text/css">
	.st0{fill:#E24275;}
	.st1{fill:#9C83D6;}
	.st2{fill:#AD96E3;}
	.st3{fill:#739CFF;}
</style>
<g id="_x23_e24275ff">
	<path class="st0" d="M142.4,0h9.4c32.6,0.4,65.1,0.4,97.7,0.8c-13.9,14.4-28.3,28.3-42.4,42.5c-27.3,27.2-54.6,54.5-82,81.7l0,0
		c-17.9-18.1-36.2-35.9-54.1-54.1C95.1,47.5,118.6,23.5,142.4,0z"/>
</g>
<g id="_x23_9c83d6ff">
	<path class="st1" d="M70.2,71.6c0.2-0.2,0.6-0.5,0.8-0.7c17.8,18.2,36.2,36,54.1,54.1c-3.3,3.8-7.4,6.7-10.9,10.3
		c-5,5-10,10-15.1,14.9c-8.3,7.1-15.7,15-23.5,22.5c-1.9,1.8-4,3.3-6.2,4.6c0.1-20.1,0.2-40.2,0.3-60.3
		C70.5,101.9,70,86.8,70.2,71.6z"/>
</g>
<g id="_x23_ad96e3ff">
	<path class="st2" d="M125.2,125L125.2,125c41,41.2,82.3,82.2,123.4,123.3l0.7,1.4c-10.9,0.2-21.8,0-32.7,0.4h-75.3
		c-2.4-3-5.3-5.6-8-8.3c-21.3-21.2-42.5-42.4-63.8-63.6l-0.1-0.8c2.2-1.4,4.3-2.8,6.2-4.6c7.8-7.5,15.2-15.5,23.5-22.5
		c5.1-4.9,10.1-9.9,15.1-14.9C117.8,131.7,121.9,128.8,125.2,125z"/>
</g>
<g id="_x23_739cffff">
	<path class="st3" d="M0,181.6c0.9,0.6,1.7,1.2,2.5,2c22.1,22.2,44.4,44.3,66.5,66.5H0V181.6z"/>
</g>
</svg>
